src/helpers/heroicons/outline/camera.svg

<svg width="24" height="24" viewBox="0 0 24 24" fill="none" xmlns="http://www.w3.org/2000/svg">
<path d="M6.82689 6.1749C6.46581 6.75354 5.86127 7.13398 5.186 7.22994C4.80655 7.28386 4.42853 7.34223 4.05199 7.40497C2.99912 7.58042 2.25 8.50663 2.25 9.57402V18C2.25 19.2426 3.25736 20.25 4.5 20.25H19.5C20.7426 20.25 21.75 19.2426 21.75 18V9.57403C21.75 8.50664 21.0009 7.58043 19.948 7.40498C19.5715 7.34223 19.1934 7.28387 18.814 7.22995C18.1387 7.13398 17.5342 6.75354 17.1731 6.17491L16.3519 4.85889C15.9734 4.25237 15.3294 3.85838 14.6155 3.82005C13.7496 3.77355 12.8775 3.75 12 3.75C11.1225 3.75 10.2504 3.77355 9.3845 3.82005C8.6706 3.85838 8.02658 4.25237 7.64809 4.85889L6.82689 6.1749Z"  stroke-width="1.5" stroke-linecap="round" stroke-linejoin="round"/>
<path d="M16.5 12.75C16.5 15.2353 14.4853 17.25 12 17.25C9.51472 17.25 7.5 15.2353 7.5 12.75C7.5 10.2647 9.51472 8.25 12 8.25C14.4853 8.25 16.5 10.2647 16.5 12.75Z"  stroke-width="1.5" stroke-linecap="round" stroke-linejoin="round"/>
<path d="M18.75 10.5H18.7575V10.5075H18.75V10.5Z"  stroke-width="1.5" stroke-linecap="round" stroke-linejoin="round"/>
</svg>

<svg xmlns="http://www.w3.org/2000/svg" fill="none" viewBox="0 0 24 24" stroke-width="1.5" stroke="currentColor" aria-hidden="true" data-slot="icon">
  <path stroke-linecap="round" stroke-linejoin="round" d="M6.827 6.175A2.31 2.31 0 0 1 5.186 7.23c-.38.054-.757.112-1.134.175C2.999 7.58 2.25 8.507 2.25 9.574V18a2.25 2.25 0 0 0 2.25 2.25h15A2.25 2.25 0 0 0 21.75 18V9.574c0-1.067-.75-1.994-1.802-2.169a47.865 47.865 0 0 0-1.134-.175 2.31 2.31 0 0 1-1.64-1.055l-.822-1.316a2.192 2.192 0 0 0-1.736-1.039 48.774 48.774 0 0 0-5.232 0 2.192 2.192 0 0 0-1.736 1.039l-.821 1.316Z"/>
  <path stroke-linecap="round" stroke-linejoin="round" d="M16.5 12.75a4.5 4.5 0 1 1-9 0 4.5 4.5 0 0 1 9 0ZM18.75 10.5h.008v.008h-.008V10.5Z"/>
</svg>
